flaticon/productivity/files.svg

<svg xmlns="http://www.w3.org/2000/svg" width="32" height="32" viewBox="0 0 24 24">
    <path d="M2.875 15.355469L5.675781 16.675781 5.675781 15.824219 3.824219 14.949219 5.675781 14.09375 5.675781 13.246094 2.875 14.566406zM6.257812 17.882812L7.070312 17.882812 9.492188 12.597656 8.671875 12.597656zM10.066406 14.09375L11.917969 14.949219 10.066406 15.824219 10.066406 16.675781 12.871094 15.355469 12.871094 14.566406 10.066406 13.246094zM10.066406 14.09375"/>
    <path d="M 23.773438 4.109375 L 19.816406 0.152344 C 19.722656 0.0585938 19.59375 0 19.453125 0 L 8.84375 0 C 8.5625 0 8.332031 0.226562 8.332031 0.511719 L 8.332031 4.636719 L 0.585938 4.636719 C 0.304688 4.636719 0.0742188 4.863281 0.0742188 5.144531 L 0.0742188 23.488281 C 0.0742188 23.773438 0.304688 24 0.585938 24 L 15.15625 24 C 15.4375 24 15.667969 23.773438 15.667969 23.488281 L 15.667969 19.363281 L 23.414062 19.363281 C 23.695312 19.363281 23.925781 19.136719 23.925781 18.855469 L 23.925781 4.46875 C 23.925781 4.328125 23.867188 4.199219 23.773438 4.109375 Z M 19.964844 1.742188 L 22.175781 3.960938 L 19.964844 3.960938 Z M 14.648438 22.980469 L 1.097656 22.980469 L 1.097656 5.65625 L 10.6875 5.65625 L 10.6875 9.105469 C 10.6875 9.386719 10.914062 9.617188 11.195312 9.617188 L 14.648438 9.617188 Z M 11.707031 6.378906 L 13.90625 8.59375 L 11.707031 8.59375 Z M 22.902344 18.34375 L 15.667969 18.34375 L 15.667969 9.105469 C 15.667969 8.964844 15.609375 8.835938 15.515625 8.742188 L 11.558594 4.785156 C 11.46875 4.691406 11.339844 4.636719 11.195312 4.636719 L 9.351562 4.636719 L 9.351562 1.019531 L 18.941406 1.019531 L 18.941406 4.46875 C 18.941406 4.753906 19.171875 4.980469 19.453125 4.980469 L 22.902344 4.980469 Z M 22.902344 18.34375"/>
</svg>

<svg xmlns="http://www.w3.org/2000/svg" width="32" height="32" viewBox="0 0 24 24">
    <path d="M2.875 15.355l2.8 1.32v-.85l-1.85-.876 1.85-.855v-.848l-2.8 1.32zm0 0M6.258 17.883h.812l2.422-5.285h-.82zm0 0M10.066 14.094l1.852.855-1.852.875v.852l2.805-1.32v-.79l-2.805-1.32zm0 0"/>
    <path d="M23.773 4.11L19.816.151A.514.514 0 0 0 19.453 0H8.843a.511.511 0 0 0-.511.512v4.125H.586a.51.51 0 0 0-.512.508v18.343c0 .285.23.512.512.512h14.57a.511.511 0 0 0 .512-.512v-4.125h7.746a.51.51 0 0 0 .512-.508V4.47c0-.14-.059-.27-.153-.36zm-3.808-2.368l2.21 2.219h-2.21zM14.648 22.98H1.098V5.656h9.59v3.45a.51.51 0 0 0 .507.511h3.453zM11.707 6.38l2.2 2.215h-2.2zm11.195 11.965h-7.234V9.105c0-.14-.059-.27-.152-.363l-3.957-3.957a.497.497 0 0 0-.364-.148H9.352V1.02h9.59v3.449c0 .285.23.511.511.511h3.45zm0 0"/>
</svg>
